X:159
T:,rvw2/2/159 Come All You Young Ploughboys
C:Mr and Mrs Verrall, Horsham, Sussex, 8 October 1904
L:1/4
Q:1/4=120
M:3/4
I:linebreak $
K:G
"^(Editorial suggestion " D | G G A | F G A | F G E | D2 D/D/ |$ G A (B/c/) | d B G | A2 (B/c/) | 
w: Come|all you young|plough- boys and|help me to|sing I will|sing in the _|praise of you|all for _|
d B A |"^(a)" B c d |$ B A G | D2"^(b)" D | G A d | c B A | G2 ||$ D | G G A | F G A | F G E | 
w: if we don't|la- bour how|can we get|bread we'll|sing and be|mer- ry with-|all.|||||
D2 D/D/ |$ G A B/c/ | d B G | A2 B/c/ | d B A |"^(a) var. (verse 4)" B2 d/d/ |$ B A G | 
w: |||||||
D2"^(b) var." E/F/ | G A d | c B A | G2 |] 
w: ||||



